X: 22881
T: Lark On The Strand, The
R: jig
M: 6/8
K: Adorian
|:~A3 AGA|AGE ~G3|Az A G(3Bcd|ege edB|
~A3 AGA|AGE ~G2D|GBA G2B|dBG (3BcdB:|
|:G (3Bcd ~g2 d|gba gdB|G (3Bcd g2d|edg edB|
G (3Bcd ~g2d|gba gab|a4 age|edg edB:|

